X:1
T:I Come to Thee
T:I Come to Thee
T:Edwin Othello Excell
T:Anna Marlim, 1887
T:Public Domain Courtesy of the Cyber Hymnal™
C:Edwin Othello Excell
Z:Public Domain
Z:Courtesy of the Cyber Hymnal™
%%score ( 1 2 ) ( 3 4 )
L:1/8
Q:1/4=115
M:4/4
K:E
V:1 treble 
V:2 treble 
V:3 bass 
V:4 bass 
V:1
 E2 | [EG]2 [EG]2 [EG]2 [FA]2 | [GB]6 [Ac]2 | [GB]2 [EG]2 [EG]2 [DF]2 | E6 E2 | %5
w: 1.~Thou|art my strength and|shield, My|re- fuge and my|grace; When|
w: 2.~A|home for wear- y|souls, A|rock my trust to|stay, My|
w: 3.~My|sins how man- i-|fold, Yet|Thou canst cleanse them|all; Oh,|
 [EG]2 [EG]2 [EG]2 [FA]2 | [GB]6 [Ac]2 | [GB]2 [EG]2 [EG]2 [DF]2 | E6 ||"^Refrain" [GB]2 | %10
w: earth- ly help- ers|flee, Thou|art my hid- ing|place.|I|
w: shep- herd and my|guide, Who|on- ly knows the|way.||
w: lead me to Thy|home, And|keep me lest I|fall.||
 [Ad]6 [AB]2 | [Ge]6 [EG]2 | [DF]2 [EG]2 [FA]2 [Ac]2 | [GB]3 [FA] [EG]2 [GB]2 | [Ad]6 [AB]2 | %15
w: come, I|come, In|sor- row and in|my dis- tress, I|come, I|
w: |||||
w: |||||
 [Ge]6 [EG]2 | [DF]2 [FA]2 [EG]2 [DF]2 | E6 |] %18
w: come, To|Thee for ho- li-|ness.|
w: |||
w: |||
V:2
 E2 | x8 | x8 | x8 | E6 E2 | x8 | x8 | x8 | E6 || x2 | x8 | x8 | x8 | x8 | x8 | x8 | x8 | E6 |] %18
V:3
 [E,G,]2 | [E,B,]2 [E,B,]2 [E,B,]2 [E,B,]2 | [E,E]6 [E,E]2 | [B,,E]2 [B,,B,]2 [B,,B,]2 [B,,A,]2 | %4
w: ~|~ ~ ~ ~|~ ~|~ ~ ~ ~|
 [E,G,]6 [E,G,]2 | [E,B,]2 [E,B,]2 [E,B,]2 [E,B,]2 | [E,E]6 [E,E]2 | %7
w: ~ ~|~ ~ ~ ~|~ ~|
 [B,,E]2 [B,,B,]2 [B,,B,]2 [B,,A,]2 | [E,G,]6 || [E,B,]2 | B,2 [B,C]2 [B,D]2 [B,F]2 | %11
w: ~ ~ ~ ~|~|~|~ to Thee, ~|
 [E,E]2 [E,B,]2 [E,E]2 [E,B,]2 | [B,,B,]2 [B,,B,]2 [B,,B,]2 [B,,D]2 | %13
w: ~ to Thee ~|~ ~ ~ ~|
 [E,E]3 [E,B,] [E,B,]2 [E,B,]2 | B,2 [B,C]2 [B,D]2 [B,F]2 | [E,E]2 [E,B,]2 [E,E]2 [E,B,]2 | %16
w: ~ ~ ~ ~|~ to Thee, ~|~ to Thee *|
 [B,,B,]2 [B,,B,]2 [B,,B,]2 [B,,A,]2 | [E,G,]6 |] %18
w: ||
V:4
 x2 | x8 | x8 | x8 | x8 | x8 | x8 | x8 | x6 || x2 | B,2 x6 | x8 | x8 | x8 | B,2 x6 | x8 | x8 | %17
 x6 |] %18

